X: 1
T: an Coolin (An C\'uilfhionn, The Coolin)
T: the Whipering Wind
R: slow air
Z: 2020 John Chambers <jc:trillian.mit.edu>
S: https://www.facebook.com/groups/Fiddletuneoftheday/ 2020-09-08
S: https://www.facebook.com/groups/Fiddletuneoftheday/photos/
N: There are many very different versions of this tune.
M: 3/4
L: 1/16
K: G
d2ef | g4  g4  g3f  | g4   B4   GBd2 | g3f gab2 a3f  | g4  f4   
g3f  | e6  fg  agfe | d4   B2d2 g2d2 | f6 (3edc B2G2 | A3G G4 :|
d3c  | B3A G3A B3c  | d3^c d3e  f3d  | g3f gab2 a3g  | g4  f4   
g3f  | e6  fg  agfe | d4   B2d2 g2d2 | f6 (3edB B2G2 | A3G G4 |]
